svgs/regular/cloud-snow.svg

<svg xmlns="http://www.w3.org/2000/svg" viewBox="0 0 512 512"><!--! Font Awesome Pro 6.2.0 by @fontawesome - https://fontawesome.com License - https://fontawesome.com/license (Commercial License) Copyright 2022 Fonticons, Inc. --><path d="M108 320h296C463.6 320 512 271.5 512 212c0-57.25-44.88-104.3-101.3-107.8C397.3 61.75 357.1 32 312 32c-13.5 0-26.75 2.625-39.25 7.75C250.3 14.5 218.4 0 184 0c-64 0-116.4 50.25-119.8 113.4C25.63 130.4 0 168.5 0 212C0 271.5 48.38 320 108 320zM94.38 153.8l20.75-4.875L112.4 124C112.3 122.8 112 121.4 112 120c0-39.75 32.25-72 72-72c25.25 0 48.25 13.12 61.38 35.13l13.38 22.12l21-15C289.4 83.63 300.5 80 312 80c28.62 0 52.38 21.75 55.25 50.38L369.5 152H404c33.13 0 60 26.88 60 60S437.1 272 404 272h-296C74.88 272 48 245.1 48 212C48 184 67.13 160 94.38 153.8zM104 392h-16v-16C88 362.8 77.25 352 64 352s-24 10.75-24 24v16h-16C10.75 392 0 402.8 0 416s10.75 24 24 24h16v16C40 469.3 50.75 480 64 480s24-10.75 24-24v-16h16C117.3 440 128 429.3 128 416S117.3 392 104 392zM488 392h-16v-16c0-13.25-10.75-24-24-24s-24 10.75-24 24v16h-16C394.8 392 384 402.8 384 416s10.75 24 24 24h16v16c0 13.25 10.75 24 24 24s24-10.75 24-24v-16h16c13.25 0 24-10.75 24-24S501.3 392 488 392zM296 424h-16v-16c0-13.25-10.75-24-24-24s-24 10.75-24 24v16h-16C202.8 424 192 434.8 192 448s10.75 24 24 24h16v16C232 501.3 242.8 512 256 512s24-10.75 24-24v-16h16c13.25 0 24-10.75 24-24S309.3 424 296 424z"/></svg>

<svg xmlns="http://www.w3.org/2000/svg" viewBox="0 0 512 512"><!--! Font Awesome Pro 6.3.0 by @fontawesome - https://fontawesome.com License - https://fontawesome.com/license (Commercial License) Copyright 2023 Fonticons, Inc. --><path d="M112 120c0-39.8 32.2-72 72-72c25.8 0 48.5 13.6 61.2 34c3.8 6.1 10.1 10.2 17.2 11.1s14.3-1.3 19.5-6.2c10-9.3 23.4-15 38.1-15c29 0 52.9 22.1 55.7 50.4c1.2 12.3 11.6 21.7 23.9 21.6l.3 0h0c35.3 0 64 28.7 64 64s-28.7 64-64 64H108h-1.9c-.3 0-.7-.1-1-.1C73.3 270.4 48 244.2 48 212c0-28.3 19.6-52.1 46.1-58.4c11.8-2.8 19.6-13.9 18.3-25.9c-.3-2.5-.4-5.1-.4-7.7zM184 0C120 0 67.7 50.1 64.2 113.3C26.4 130.1 0 167.9 0 212c0 57.1 44.3 103.9 100.5 107.7c1.2 .2 2.3 .3 3.5 .3h4H400c61.9 0 112-50.1 112-112c0-55.2-39.9-101.1-92.5-110.3C406.5 55 366.9 24 320 24c-18 0-34.9 4.6-49.7 12.6C248.5 14.1 217.9 0 184 0zM64 352c-13.3 0-24 10.7-24 24v16H24c-13.3 0-24 10.7-24 24s10.7 24 24 24H40v16c0 13.3 10.7 24 24 24s24-10.7 24-24V440h16c13.3 0 24-10.7 24-24s-10.7-24-24-24H88V376c0-13.3-10.7-24-24-24zm192 32c-13.3 0-24 10.7-24 24v16H216c-13.3 0-24 10.7-24 24s10.7 24 24 24h16v16c0 13.3 10.7 24 24 24s24-10.7 24-24V472h16c13.3 0 24-10.7 24-24s-10.7-24-24-24H280V408c0-13.3-10.7-24-24-24zm216-8c0-13.3-10.7-24-24-24s-24 10.7-24 24v16H408c-13.3 0-24 10.7-24 24s10.7 24 24 24h16v16c0 13.3 10.7 24 24 24s24-10.7 24-24V440h16c13.3 0 24-10.7 24-24s-10.7-24-24-24H472V376z"/></svg>
